X: 36
T:Gan Ainm
R:Fling
M:4/4
S:Sharon Shannon, Clare (accordian)
D:Session tape, Doolin 1987
Z:Bernie Stocks
K:A
f | eAcf eAcf | eAcA Bcdf | eAcf eAce | fdBd cA(3.A.A.A :| aece fece |
aece fB(3.B.B.B |1 aece fece | f2ed cAA2 :|2 a2ae faec | Bcde f3a ||
